X:1
T:Title
%%score { ( 1 4 ) | ( 2 3 ) }
L:1/8
Q:1/4=100
M:4/4
K:C
V:1 treble nm="Grand Piano"
V:4 treble 
V:2 bass 
V:3 bass 
V:1
 [EG]2 AB [Ec]2 [Gc]2 | [Fd]2 [GA]2 [^Fd]2 [Ac]2 | [GB]3 [FA] [EG]2 AB | [Ec]2 [^Fe]2 [Gd]4 | %4
w: Theo.~E.~Perkins * * * *||||
 [Ge]2 ed [Gc]2 [Ec]>[GB] | [FA]2 [Af]2 [Ae]2 [Ad]2 | c2 Bc [Ge]3 d | c2 B2 [Ec]4 | %8
w: ||||
 [Ge]2 [Ec]2 [Ge]2 [Ec]2 | c2 A2 c2 A2 | G2 F-[FB] [Ec]2 c2 | d2 d2 d4 | [Ge]2 [Ec]2 [Ge]2 [Ec]2 | %13
w: |||||
 c2 A2 c2 A2 |[M:19/16] G-<GF-[FB][Ec]/-[Ec]/-[Ec]/-[Ec]/-[Ec]/-[Ec]-<[Ec][Ge] | %15
w: ||
[M:4/4] [Fd]3 [Ec] [Ec]4 |] %16
w: |
V:2
 z2 F2 z4 | [F,A,]2 [E,^C]2 [D,D]2 [^F,D]2 | z4 z2 F2 | [C,G,]2 [D,C]2 [G,B,]4 | %4
 [C,C]2 [C,C][D,B,] [E,C]2 [C,C]2 | [F,C]2 [D,D]2 [E,^C]2 [F,D]2 | z2 .[DF]2[K:bass] z4 | %7
 [G,E]2 [G,D]2 [C,G,]4 | [C,C]2 [C,G,]2 [C,C]2 [C,G,]2 | [F,A,F]2 [F,CF]2 [F,A,F]2 [F,CF]2 | %10
 [E,C]2 [D,G,]2 [C,G,]2[K:treble] [CEG]2 | [B,DG]2 [A,C^F]2 [G,B,G]4 | %12
 [C,C]2 [C,G,]2 [C,C]2 [C,G,]2 | [F,A,F]2 [F,CF]2 [F,A,F]2 [F,CF]2 | %14
[M:19/16] [E,C]-<[E,C][D,G,]-<[D,G,][C,G,]/-[C,G,]/-[C,G,]/-[C,G,]/-[C,G,]/-[C,G,]-<[C,G,][C,C] | %15
[M:4/4] [G,B,]3 [C,G,] [C,G,]4 |] %16
V:3
 [C,C]2 [F,C][D,G,] [C,G,]2 [E,C]2 | x8 | [G,D]3 [G,B,] [C,C]2 [F,C][D,G,] | x8 | x8 | x8 | %6
 [G,EG]2 G,-[G,CE][K:bass] [C,C]3 [F,A,F] | x8 | x8 | x8 | x6[K:treble] x2 | x8 | x8 | x8 | %14
[M:19/16] x19/2 |[M:4/4] x8 |] %16
V:4
 x8 | x8 | x8 | x8 | z2 G2 z4 | x8 | x8 | x8 | x8 | x8 | z2 .A2 z4 | x8 | x8 | x8 | %14
[M:19/16] z/ z/ z .A3/2 z/ z/ z/ z/ z/ z/ z/ z/ z/ z/ z |[M:4/4] x8 |] %16

